icons/unmute-16.svg

<svg width="16" height="16" viewBox="0 0 16 16" xmlns="http://www.w3.org/2000/svg">
  <path fill-rule="evenodd" clip-rule="evenodd" d="M7.563 2.069C7.69333 2.12885 7.80376 2.22481 7.88122 2.34551C7.95867 2.46621 7.99989 2.60659 8 2.75V13.25C8.00009 13.3935 7.95903 13.5339 7.88169 13.6548C7.80436 13.7756 7.69398 13.8717 7.56367 13.9317C7.43335 13.9917 7.28856 14.0131 7.14647 13.9933C7.00437 13.9735 6.87094 13.9133 6.762 13.82L3.472 11H1.75C1.28587 11 0.840752 10.8156 0.512563 10.4874C0.184374 10.1592 0 9.71413 0 9.25L0 6.75C0 5.784 0.784 5 1.75 5H3.473L6.762 2.18C6.87096 2.0869 7.0043 2.02697 7.14626 2.0073C7.28821 1.98763 7.43283 2.00904 7.563 2.069ZM6.5 4.38L4.238 6.319C4.10215 6.43565 3.92906 6.49985 3.75 6.5H1.75C1.6837 6.5 1.62011 6.52634 1.57322 6.57322C1.52634 6.62011 1.5 6.6837 1.5 6.75V9.25C1.5 9.388 1.612 9.5 1.75 9.5H3.75C3.92893 9.49987 4.10201 9.56371 4.238 9.68L6.5 11.62V4.38ZM12.596 2.342C12.7366 2.20155 12.9272 2.12266 13.126 2.12266C13.3248 2.12266 13.5154 2.20155 13.656 2.342C14.3989 3.08487 14.9882 3.96681 15.3903 4.93744C15.7924 5.90807 15.9993 6.94839 15.9993 7.999C15.9993 9.04961 15.7924 10.0899 15.3903 11.0606C14.9882 12.0312 14.3989 12.9131 13.656 13.656C13.5138 13.7885 13.3258 13.8606 13.1315 13.8572C12.9372 13.8537 12.7518 13.775 12.6144 13.6376C12.477 13.5002 12.3983 13.3148 12.3948 13.1205C12.3914 12.9262 12.4635 12.7382 12.596 12.596C13.1997 11.9924 13.6785 11.2758 14.0052 10.4871C14.332 9.69847 14.5001 8.85316 14.5001 7.9995C14.5001 7.14583 14.332 6.30053 14.0052 5.51186C13.6785 4.72319 13.1997 4.00659 12.596 3.403C12.4555 3.26237 12.3767 3.07175 12.3767 2.873C12.3767 2.67425 12.4555 2.48363 12.596 2.343V2.342ZM11.536 4.463C11.3953 4.3223 11.2045 4.24326 11.0055 4.24326C10.8065 4.24326 10.6157 4.3223 10.475 4.463C10.3343 4.6037 10.2553 4.79452 10.2553 4.9935C10.2553 5.19248 10.3343 5.3833 10.475 5.524C10.8 5.84901 11.0579 6.23486 11.2338 6.65953C11.4097 7.08419 11.5003 7.53934 11.5003 7.999C11.5003 8.45866 11.4097 8.91381 11.2338 9.33847C11.0579 9.76314 10.8 10.149 10.475 10.474C10.4013 10.5427 10.3422 10.6255 10.3012 10.7175C10.2602 10.8095 10.2382 10.9088 10.2364 11.0095C10.2346 11.1102 10.2532 11.2102 10.2909 11.3036C10.3286 11.397 10.3847 11.4818 10.456 11.553C10.5272 11.6243 10.612 11.6804 10.7054 11.7181C10.7988 11.7558 10.8988 11.7744 10.9995 11.7726C11.1002 11.7708 11.1995 11.7488 11.2915 11.7078C11.3835 11.6668 11.4663 11.6077 11.535 11.534C12.4724 10.5964 12.9989 9.32482 12.9989 7.999C12.9989 6.67318 12.4724 5.40164 11.535 4.464L11.536 4.463Z"/>
</svg>

<svg xmlns="http://www.w3.org/2000/svg" width="16" height="16" viewBox="0 0 16 16"><path fill-rule="evenodd" d="M7.563 2.069A.75.75 0 018 2.75v10.5a.75.75 0 01-1.238.57L3.472 11H1.75A1.75 1.75 0 010 9.25v-2.5C0 5.784.784 5 1.75 5h1.723l3.289-2.82a.75.75 0 01.801-.111zM6.5 4.38L4.238 6.319a.75.75 0 01-.488.181h-2a.25.25 0 00-.25.25v2.5c0 .138.112.25.25.25h2a.75.75 0 01.488.18L6.5 11.62V4.38zm6.096-2.038a.75.75 0 011.06 0 8 8 0 010 11.314.75.75 0 01-1.06-1.06 6.5 6.5 0 000-9.193.75.75 0 010-1.06v-.001zm-1.06 2.121a.75.75 0 10-1.061 1.061 3.5 3.5 0 010 4.95.75.75 0 101.06 1.06 5 5 0 000-7.07l.001-.001z"/></svg>
